svg/black/sui.svg

<svg width="32" height="32" viewBox="0 0 32 32" fill="none" xmlns="http://www.w3.org/2000/svg"><path d="M6.48886 26.4432C8.474 29.923 12.0297 32 16 32C19.9703 32 23.5254 29.923 25.5112 26.4432C27.4962 22.9644 27.4962 18.8102 25.5112 15.3306L17.1459 0.669446C16.6366 -0.22315 15.3634 -0.223148 14.8541 0.669448L6.48886 15.3306C4.50372 18.8095 4.50372 22.9636 6.48886 26.4432ZM13.6435 7.64438L15.427 4.5184C15.6817 4.07208 16.3183 4.07208 16.573 4.5184L23.4344 16.5443C24.695 18.7536 24.9316 21.3106 24.1442 23.6506C24.0622 23.2688 23.9478 22.8782 23.7932 22.4836C22.8454 20.0634 20.7024 18.1958 17.4226 16.9323C15.1676 16.0667 13.7282 14.7937 13.1433 13.1484C12.39 11.0278 13.1768 8.71532 13.6435 7.64438ZM10.6022 12.9747C10.6688 13.2976 10.7574 13.622 10.8715 13.9457C11.6999 16.2971 13.6155 18.064 16.5641 19.1958C19.1725 20.2012 20.848 21.5972 21.5442 23.3458C22.298 25.2396 21.6878 27.077 21.4908 27.5788C19.9801 28.8572 18.0614 29.5738 16 29.5738C12.8963 29.5738 10.1175 27.9508 8.5656 25.2308C7.01372 22.511 7.01372 19.2642 8.5656 16.5443L10.6022 12.9747Z" fill="#111111"/></svg>

<svg width="32" height="32" viewBox="0 0 32 32" fill="none" xmlns="http://www.w3.org/2000/svg"><path d="M6.489 26.443C8.474 29.923 12.029 32 16 32c3.97 0 7.525-2.077 9.511-5.557 1.985-3.479 1.985-7.633 0-11.112L17.146.669a1.315 1.315 0 00-2.292 0L6.49 15.331c-1.985 3.479-1.985 7.633 0 11.112zm7.154-18.799l1.784-3.126a.658.658 0 011.146 0l6.861 12.026c1.261 2.21 1.498 4.767.71 7.107a7.528 7.528 0 00-.35-1.167c-.949-2.42-3.092-4.288-6.371-5.552-2.255-.865-3.695-2.138-4.28-3.784-.753-2.12.034-4.433.5-5.504zm-3.04 5.33c.066.324.154.648.268.972.829 2.351 2.745 4.118 5.693 5.25 2.608 1.005 4.284 2.401 4.98 4.15.754 1.894.144 3.731-.053 4.233A8.446 8.446 0 0116 29.574c-3.104 0-5.883-1.623-7.434-4.343a8.686 8.686 0 010-8.687l2.036-3.57z" fill="#111"/></svg>
